X:5728
T:Sail Away Ladies
O:England
M:C
L:1/8
S:Rodney Miller
K:G
g2ga g2d2|e3 e3-e2|c2 c2 d2 e2|d2 de d2 (d2|
d)edB AGED|EA2 B A2 (A2|A)BAG EDEF|G2 GF G2:|
GA|B3 B2 AGB|A2 AB A2 (A2|A)BAG EDEF|G2 GF G2 GA|
B3 B2 AGB|A2 AB A2 (A2|A)BAG EDEF|G2 GF G2:|


